X: 21
T: No_119.krn
%%abc-version 2.0
%%abcx-abcm2ps-target-version 5.9.1 (29 Sep 2008)
%%abc-creator hum2abc beta
%%abcx-conversion-date 2020/08/10 18:54:57
%%gracespace 0 6 6
%%humdrum-veritas 2313471087
%%humdrum-veritas-data 1222050785
%%linebreak <none>
%%barnumbers 0
L: 1/8
M: 2/4
%%staves {1 2}
V: 1 clef=bass
V: 2 clef=bass
K: F
[V:1] D3/D/ [I:setbarnb 1]| 
[V:2] z2 | 
[V:1] D2A,/A,B,/ | 
[V:2] (3!accent!G,, z G,, (3!accent!G,, z G,, | 
[V:1] A,2G,3/F,/ | 
[V:2] z4 | 
[V:1] G,2G,2- | 
[V:2] z4 | 
[V:1] G,4 ||  
[V:2] z4 ||  
[V:1] [M:3/4]D,2E,2D,3/C,/ ||  
[V:2] [M:3/4]z6 ||  
[V:1] [M:2/4]D,2D,2- | 
[V:2] [M:2/4]z4 | 
[V:1] D,2D,/D,3/- | 
[V:2] z4 | 
[V:1] D,2A,3/A,/ | 
[V:2] z4 | 
[V:1] C2G,2 | 
[V:2] z4 | 
[V:1] B,2G,3/F,/ | 
[V:2] z4 | 
[V:1] G,2G,2 | 
[V:2] z4 | 
[V:1] G,<G,G,2 | 
[V:2] z4 | 
[V:1] G,/G,/G,/G,/D2 ||  
[V:2] z4 ||  
[V:1] [M:3/4]D2>^C2 D7//G,// | 
[V:2] [M:3/4]z6 | 
[V:1] G,4A,2 ||  
[V:2] z6 ||  
[V:1] [M:2/4]A,4 ||  
[V:2] [M:2/4]z4 ||  
[V:1] [M:3/4]A,<A,-A,2C3/C/ ||  
[V:2] [M:3/4]z6 ||  
[V:1] [M:2/4]D2A,/A,B,/ | 
[V:2] [M:2/4]z4 | 
[V:1] A,2G,3/F,/ | 
[V:2] z4 | 
[V:1] G,2G,2- | 
[V:2] z4 | 
[V:1] G,4 ||  
[V:2] z4 ||  
[V:1] [M:3/4]D,2E,2D,3/C,/ ||  
[V:2] [M:3/4]z6 ||  
[V:1] [M:2/4]D,2D,2- | 
[V:2] [M:2/4]z4 | 
[V:1] D,2z2 |]  
[V:2] z4 |]  


